X:123
T:Prince of Wales, The
M:C
L:1/8
B:Thompson's Compleat Collection of 200 Favourite Country Dances, vol. 2 (London, 1765)
Z:Transcribed and edited by Flynn Titford-Mock, 2007
Z:abc's:AK/Fiddler's Companion
K:F
F2 AF c2 ec | f2 gf {f}e2 dc | f c2 f dB2d | c A2c AF [C2c2] | F2 AF c2 ec | f2 gf e2 dc |
defd B2 c2 | Gc=Bd c4 :: c | f c2 fd B2d | g d2g ec2 e | a f2 ag e2g |
fdgf {f}e2 dc | BcdB G2 cB | ABcA F2c2 | defd gfeg | afge f4 :|

